svg/open-resume.svg

<svg xmlns="http://www.w3.org/2000/svg" viewBox="0 0 500 500"><defs><linearGradient id="a" x1="40" x2="-7.2" y1="7" y2="19.325" gradientTransform="matrix(12.50002 0 0 12.53131 .033 -87.718)" gradientUnits="userSpaceOnUse"><stop stop-color="#4FC5EB"/><stop offset="1" stop-color="#5D52D9"/></linearGradient></defs><path fill="url(#a)" d="M275.037 0v75.942c84.75 12.154 150.001 85.087 150.001 173.431 0 22.43-4.375 43.861-11.998 63.534l64.997 38.474c13.877-31.207 22.001-65.542 22.001-102.008 0-129.951-98.624-236.716-225.001-249.373m-24.998 424.813c-96.627 0-175.001-78.572-175.001-175.44 0-88.344 65.25-161.277 150-173.431V0c-126.5 12.529-225 119.422-225 249.373C.038 387.844 111.786 500 249.914 500c82.749 0 155.873-40.476 201.375-102.505l-64.876-38.346c-31.998 39.973-81.125 65.664-136.374 65.664"/></svg>

<svg xmlns="http://www.w3.org/2000/svg" viewBox="0 0 500 500"><defs><linearGradient id="paint0_linear_44_153" x1="40" x2="-7.2" y1="7" y2="19.325" gradientTransform="matrix(12.500018, 0, 0, 12.531315, 0.032708, -87.717927)" gradientUnits="userSpaceOnUse"><stop stop-color="#4FC5EB"/><stop offset="1" stop-color="#5D52D9"/></linearGradient></defs><path fill="url(#paint0_linear_44_153)" d="M 275.037 0 L 275.037 75.942 C 359.787 88.096 425.038 161.029 425.038 249.373 C 425.038 271.803 420.663 293.234 413.04 312.907 L 478.037 351.381 C 491.914 320.174 500.038 285.839 500.038 249.373 C 500.038 119.422 401.414 12.657 275.037 0 Z M 250.039 424.813 C 153.412 424.813 75.038 346.241 75.038 249.373 C 75.038 161.029 140.288 88.096 225.038 75.942 L 225.038 0 C 98.538 12.529 0.038 119.422 0.038 249.373 C 0.038 387.844 111.786 500 249.914 500 C 332.663 500 405.787 459.524 451.289 397.495 L 386.413 359.149 C 354.415 399.122 305.288 424.813 250.039 424.813 Z"/></svg>
